!!!!SEGMENT: pl-kk--kk-i-1--053_anonim--communio-beata-viscera.krn
!!!cenid: 15xx:773
!!!COM: Anonim
!!!COM-rismid: pe30004985
!!!CDT:
!!!CNT:
!!!OTL: Communio/Beata viscera
!!!PDT:
!!!AGN:
!!!SMS-siglum: PL-Kk
!!!SMS-shelfmark: Kk.I.1
!!!SMS-shelfwork: 053 W
!!!SMS-variant:
!!!SMS-altvar:
!!!NIFC-rismid: 300258007
!!!URL-scan: http://repozytorium.nifc.pl/skany/pl-kk-nut--i-1
!!!ONB-nifc: UWAGA: Cantus (s. 164r, skan 0166), Altus (s. 160v-161r, skan 0354), Tenor (s. 139r, skan 0529), Bassus (s. 150r-v, skan 0712-0713).
!!!key:
**kern	**text	**kern	**text	**kern	**text	**kern	**text
*part4	*part4	*part3	*part3	*part2	*part2	*part1	*part1
*staff4	*staff4	*staff3	*staff3	*staff2	*staff2	*staff1	*staff1
*I"BASSVS	*	*I"TENOR	*	*I"ALTVS	*	*I"CANTVS	*
*I'B	*	*I'T	*	*I'A	*	*I'A	*
*Ibass	*	*Itenor	*	*Ialto	*	*Isoprn	*
*ICvox	*	*ICvox	*	*ICvox	*	*ICvox	*
*clefF5	*	*clefC5	*	*clefC4	*	*clefC4	*
*k[]	*	*k[]	*	*k[]	*	*k[]	*
*C:	*	*C:	*	*C:	*	*C:	*
*stria6	*	*stria6	*	*stria6	*	*stria6	*
*M2/1	*	*M2/1	*	*M2/1	*	*M2/1	*
*met(C|)	*	*met(C|)	*	*met(C|)	*	*met(C|)	*
=1-	=1-	=1-	=1-	=1-	=1-	=1-	=1-
!	!	!	!	!	!	!LO:TX:a:t=Communio.	!
1AA	BE-	1C	BE-	2E/	BE-	1.c	BE-
.	.	.	.	2F/	-A-	.	.
1GG	-A-	1D	-a-	1G	-TA	.	.
.	.	.	.	.	.	2B/	-a-
=2-	=2-	=2-	=2-	=2-	=2-	=2-	=2-
*	*	*lig	*	*	*	*	*
1FF	-TA	1F	-ta	2A/	vi-	4A/	.
.	.	.	.	.	.	4B/	.
.	.	.	.	2A/	-ſce-	4c/	.
.	.	.	.	.	.	4d\	.
2.C/	vi-	1E	.	2G/	-ra	2e\	.
*	*	*	*	*	*ij	*	*
.	.	.	.	2G/	BE-	2.c/	-ta
4BB/	.	.	.	.	.	.	.
*	*	*Xlig	*	*	*	*	*
=3-	=3-	=3-	=3-	=3-	=3-	=3-	=3-
*	*	*lig	*	*	*	*	*
2AA/	.	1F	vi-	2A/	-A-	.	.
.	.	.	.	.	.	4d\	.
2AA/	-ſce-	.	.	1c	-TA	4e\	.
.	.	.	.	.	.	4f\	.
0GG	-ra	1G	.	.	.	2e\	vi-
.	.	.	.	4B/	.	4d\	-ſce-
.	.	.	.	4A/	.	4c/	.
*	*	*Xlig	*	*	*	*	*
=4-	=4-	=4-	=4-	=4-	=4-	=4-	=4-
*	*	*lig	*	*	*	*	*
.	.	1G	-ſce-	2B\	vi-	2d,\	-ra
.	.	.	.	2B\	-ſce-	2d\	be-
*	*ij	*	*	*	*	*	*
1D	BE-	1F	.	2A/	-ra	2d\	-a-
*	*	*	*	*	*Xij	*	*
.	.	.	.	2.A/	vi-	2d\	-ta
*	*	*Xlig	*	*	*	*	*
=5-	=5-	=5-	=5-	=5-	=5-	=5-	=5-
*	*	*lig	*	*	*	*	*
2E\	-A-	1E	.	.	.	2B/	vi-
.	.	.	.	4G/	.	.	.
2C/	-TA	.	.	2.G/	.	2c/	-ſce-
2D\	vi-	1D	.	.	.	2A/	-ra
*	*	*	*	*custos:F	*	*	*
.	.	.	.	4F/	.	.	.
*	*	*	*	*	*	*	*ij
!	!	!	!	!LO:LB:g=original	!	!	!
2DD/	-ſce-	.	.	2F/	-ſce-	2f\	be-
*	*	*Xlig	*	*	*	*	*
=6-	=6-	=6-	=6-	=6-	=6-	=6-	=6-
2AA/	-ra	1E	.	0A	-ra	2e\	-a-
*	*Xij	*	*	*	*	*	*
2AA/	be-	.	.	.	.	2c/	-ta
*	*	*lig	*	*	*	*	*
2D/	-a-	1F	-ra	.	.	2.d\	vi-
2D/	-ta	.	.	.	.	.	.
*	*	*	*	*	*	*custos:B-	*
.	.	.	.	.	.	4c/	.
!	!	!	!	!	!	!LO:LB:g=original	!
=7-	=7-	=7-	=7-	=7-	=7-	=7-	=7-
2GG/	vi-	1D	.	2.d\	Ma-	2B-X/	.
*custos:D	*	*	*	*	*	*	*
2GG/	-ſce-	.	.	.	.	2B-/	-ſce-
.	.	.	.	4c\	.	.	.
!LO:LB:g=original	!	!	!	!	!	!	!
*	*	*Xlig	*	*	*	*	*
1D	-ra	1F	Ma-	4d\	.	2A/	-ra
*	*	*	*	*	*	*	*Xij
.	.	.	.	4e\	.	.	.
.	.	.	.	2f\	.	2a\	Ma-
=8-	=8-	=8-	=8-	=8-	=8-	=8-	=8-
*	*	*lig	*	*	*	*	*
1rF	.	1G	-ri-	2e\	-ri-	2g\	-ri-
.	.	.	.	1d	-ae	2g\	-ae
1AA	Ma-	1A	.	.	.	2e\	Vir-
.	.	.	.	2c\	vir-	2e\	-gi-
*	*	*Xlig	*	*	*	*	*
=9-	=9-	=9-	=9-	=9-	=9-	=9-	=9-
*	*	*lig	*	*	*	*	*
1D	-ri-	1A	-ae	2.d\	.	1f#X	-nis
.	.	.	.	4c/	.	.	.
1GG	-ae	1G	.	2B-X/	.	2rd	.
.	.	.	.	2B-/	-gi-	2d\	Ma-
*	*	*Xlig	*	*	*	*	*
=10-	=10-	=10-	=10-	=10-	=10-	=10-	=10-
*	*	*custos:F	*	*	*	*	*
0D	vir-	1F	.	4A/	-nis	1.d	-ri-
.	.	.	.	4G/	.	.	.
.	.	.	.	4A/	.	.	.
.	.	.	.	4B-X/	.	.	.
!	!	!LO:LB:g=original	!	!	!	!	!
*	*	*lig	*	*	*	*	*
.	.	1F	vir-	2A/	.	.	.
*	*	*	*	*custos:E	*	*	*
.	.	.	.	1F/	vir-	2A/	-ae
=11-	=11-	=11-	=11-	=11-	=11-	=11-	=11-
1C	-gi-	1G	.	.	.	1c	vir-
!	!	!	!	!LO:LB:g=original	!	!	!
.	.	.	.	2E/	-gi-	.	.
*	*	*Xlig	*	*	*	*	*
*	*	*lig	*	*	*	*	*
1F	-nis	1A	.	2F/	-nis	2.c/	-gi-
*	*	*	*	*	*ij	*	*
.	.	.	.	1c\	Ma-	.	.
.	.	.	.	.	.	4d\	.
=12-	=12-	=12-	=12-	=12-	=12-	=12-	=12-
2rD	.	1G	.	.	.	2e\	-nis
*	*ij	*	*	*	*	*	*
2G\	Ma-	.	.	4B\ny	-ri-	2.d\	vir-
.	.	.	.	4c\	.	.	.
*	*	*Xlig	*	*	*	*	*
*	*	*lig	*	*	*	*	*
2G\	-ri-	1A	.	1d	-ae	.	.
.	.	.	.	.	.	4e\	.
2F\	-ae	.	.	.	.	2f\ny	-gi-
=13-	=13-	=13-	=13-	=13-	=13-	=13-	=13-
2G\	vir-	1B-X	.	1.d	vir-	2d\	-nis
2G\	-gi-	.	.	.	.	1g	Ma-
*	*	*Xlig	*	*	*	*	*
2D/	-nis	1A	-gi-	.	.	.	.
*	*Xij	*	*	*	*	*	*
1D\	Ma-	.	.	2d\	-gi-	1f\	-ri-
=14-	=14-	=14-	=14-	=14-	=14-	=14-	=14-
.	.	1A	-nis	2A/	-nis	.	.
*	*	*	*	*	*Xij	*	*
2C/	-ri-	.	.	2c\	quae	2e\	-ae
2D\	-ae	1F	qu(ae)	2B/	por-	2d\	Vir-
2F\	vir-	.	.	2A/	-ta-	2d\	-gi-
=15-	=15-	=15-	=15-	=15-	=15-	=15-	=15-
*	*	*lig	*	*	*	*	*
1E	-gi-	1G	por-	1B	-ue-	0e	-nis
*custos:AA	*	*	*	*	*	*	*
1AA	-nis	1A	.	1.c	-ru(n)t	.	.
*	*	*Xlig	*	*	*	*	*
!LO:LB:g=original	!	!	!	!	!	!	!
=16-	=16-	=16-	=16-	=16-	=16-	=16-	=16-
*	*	*lig	*	*	*ij	*	*
1AA	qu(ae)	1A	-ta-	.	.	2rd	.
*	*	*	*	*	*	*custos:d	*
.	.	.	.	1.A	quae	2c#X/	qu(ae)
!	!	!	!	!	!	!LO:LB:g=original	!
1D	por-	1F	.	.	.	2d\	por-
.	.	.	.	.	.	2.d\	-ta-
*	*	*Xlig	*	*	*	*	*
=17-	=17-	=17-	=17-	=17-	=17-	=17-	=17-
*	*	*lig	*	*	*	*	*
1GG	-ta-	1G	.	1B-X	por-	.	.
.	.	.	.	.	.	4c/ny	.
.	.	.	.	.	.	4d\	.
.	.	.	.	.	.	4e\	.
1D	-ue-	1F	.	2B-\	-ta-	2f\	.
.	.	.	.	2.A/	-ue-	1d\	.
*	*	*Xlig	*	*	*	*	*
=18-	=18-	=18-	=18-	=18-	=18-	=18-	=18-
1AA	-runt	1E	.	.	.	.	.
.	.	.	.	4G/	.	.	.
*	*	*	*	*custos:F	*	*	*
.	.	.	.	2E/	.	2c/	-ue-
*	*ij	*lig	*	*	*	*	*
!	!	!	!	!LO:PB:g=original	!	!	!
2r	.	1D	-ue-	2.F/	.	1d	-ru(n)t
2D\	qu(ae)	.	.	.	.	.	.
.	.	.	.	4G/	.	.	.
=19-	=19-	=19-	=19-	=19-	=19-	=19-	=19-
2D\	por-	1F	.	1A	-ru(n)t	2rd	.
*	*	*	*	*	*	*	*ij
2D\	-ta-	.	.	.	.	2d\	qu(ae)
*	*	*Xlig	*	*	*	*	*
*	*	*lig	*	*	*	*	*
2C/	-ue-	1E	.	2r	.	2e\	por-
2AA/	-runt	.	.	1A/	quae	2c/	-ta-
*	*Xij	*	*	*	*	*	*
=20-	=20-	=20-	=20-	=20-	=20-	=20-	=20-
1D	por-	1F	.	.	.	2.d\	-ue-
.	.	.	.	2A/	por-	.	.
.	.	.	.	.	.	4c/	.
*	*	*Xlig	*	*	*	*	*
*	*	*lig	*	*	*	*	*
2GG/	-ta-	1E	-runt	2G/	-ta-	2B/ny	.
2AA/	-ue-	.	.	2E/	-ue-	2c#X/	.
=21-	=21-	=21-	=21-	=21-	=21-	=21-	=21-
0D	-runt	1D	.	0F	-ru(n)t	2d\	-ru(n)t
*	*	*	*	*	*Xij	*	*Xij
.	.	.	.	.	.	1d	ae-
*	*	*Xlig	*	*	*	*	*
*	*	*custos:c	*	*	*	*	*
.	.	1A	ae-	.	.	.	.
.	.	.	.	.	.	2f\	-ter-
!	!	!LO:LB:g=original	!	!	!	!	!
=22-	=22-	=22-	=22-	=22-	=22-	=22-	=22-
*	*	*lig	*	*	*	*	*
0AA	ae-	1c	-ter-	1A	ae-	1.e	-ni
.	.	1A	.	2.c\	-ter-	.	.
.	.	.	.	.	.	2e\	p(at)-
.	.	.	.	4d\	-ni	.	.
*	*	*Xlig	*	*	*	*	*
=23-	=23-	=23-	=23-	=23-	=23-	=23-	=23-
*lig	*	*lig	*	*	*	*	*
1C	-ter-	1G	.	2e\	.	1cny	-ris
.	.	.	.	2e\	pa-	.	.
1AA	.	1A	.	1c	-tris	1e	ae-
*Xlig	*	*Xlig	*	*	*	*	*
=24-	=24-	=24-	=24-	=24-	=24-	=24-	=24-
*lig	*	*	*	*	*	*lig	*
1GG	.	1B-X	.	2.G/	fi-	1g	-ter-
.	.	.	.	4F/	.	.	.
1AA	.	1A	-ni	2E/	.	1e	.
.	.	.	.	1A/	.	.	.
*Xlig	*	*	*	*	*	*Xlig	*
=25-	=25-	=25-	=25-	=25-	=25-	=25-	=25-
*	*	*lig	*	*	*	*	*
1BB-X	.	1D	pa-	.	.	1d	.
*	*	*	*	*custos:A	*	*	*
.	.	.	.	2G/	-li-	.	.
*custos:D	*	*	*	*	*	*	*
!	!	!	!	!LO:LB:g=original	!	!	!
1AA	-ni	1C	.	1A	-um	1e	.
*	*	*Xlig	*	*	*	*	*
!LO:PB:g=original	!	!	!	!	!	!	!
=26-	=26-	=26-	=26-	=26-	=26-	=26-	=26-
*	*	*lig	*	*	*	*	*
1D	pa-	1F	.	2r	.	2f\	.
*	*	*	*	*	*	*custos:g	*
.	.	.	.	2f\	ae-	2d\	-ni
!	!	!	!	!	!	!LO:LB:g=original	!
1GG	-tris	1G	.	2e\	-ter-	2.g\	pa-
.	.	.	.	1d\	-ni	.	.
.	.	.	.	.	.	4f\	.
*	*	*Xlig	*	*	*	*	*
=27-	=27-	=27-	=27-	=27-	=27-	=27-	=27-
*	*	*lig	*	*	*	*	*
0r	.	1A	.	.	.	2e\	.
.	.	.	.	2c\	pa-	2f\	-tris
.	.	1G	.	0d	-tris	2g\	.
.	.	.	.	.	.	2G/	fi-
*	*	*Xlig	*	*	*	*	*
=28-	=28-	=28-	=28-	=28-	=28-	=28-	=28-
*	*	*lig	*	*	*	*	*
1D	ae-	1F	-tris	.	.	2A/	.
.	.	.	.	.	.	2B/	-li-
2C/	-ter-	1E	.	2r	.	1c	-u(m)
2AA/	-ni	.	.	2A/	ae-	.	.
*	*	*Xlig	*	*	*	*	*
=29-	=29-	=29-	=29-	=29-	=29-	=29-	=29-
*	*	*lig	*	*	*	*	*
2r	.	1C	fi-	2G/	-ter-	1e	ae-
2C/	ae-	.	.	2E/	-ni	.	.
2BB-X/	-ter-	1D	.	2rG	.	2d\	-ter-
2GG/	-ni	.	.	2G/	ae-	2B/	-ni
*	*	*Xlig	*	*	*	*	*
=30-	=30-	=30-	=30-	=30-	=30-	=30-	=30-
*	*	*lig	*	*	*	*	*
1BB-X	ae-	1D	-li-	2F/	-ter-	1d	ae-
.	.	.	.	2D/	-ni	.	.
2AA/	-ter-	1F	.	1A	pa-	2c/	-ter-
2FF/	-ni	.	.	.	.	2A/	-ni
*	*	*Xlig	*	*	*	*	*
=31-	=31-	=31-	=31-	=31-	=31-	=31-	=31-
*	*	*lig	*	*	*	*	*
2.AA/	pa-	1E	.	1A	-tris	2.c/	pa-
4GG/	.	.	.	.	.	4B/	.
2FF/	.	1F	.	1.A	fi-	2A/	-tris
2DD/	-tris	.	.	.	.	1d\	fi-
*	*	*Xlig	*	*	*	*	*
=32-	=32-	=32-	=32-	=32-	=32-	=32-	=32-
*	*	*lig	*	*	*	*	*
1.AA	fi-	0E	-um.	.	.	.	.
.	.	.	.	2A/	-li-	4c/	.
.	.	.	.	.	.	4B/	.
.	.	.	.	1A	-um	2c#X/	.
*custos:D	*	*	*	*	*	*	*
2AA/	-li-	.	.	.	.	2c#/	-li-
*clefF4	*	*	*	*	*	*	*
!LO:LB:g=original	!	!	!	!	!	!	!
=33-	=33-	=33-	=33-	=33-	=33-	=33-	=33-
1D	-um	000D;	.	2r	.	0d	-um
*	*	*	*	*custos:B	*	*	*
.	.	.	.	2A/	ae-	.	.
!	!	!	!	!LO:LB:g=original	!	!	!
2r	.	.	.	2B-X\	-ter-	.	.
2A\	ae-	.	.	2A/	-ni	.	.
*	*	*Xlig	*	*	*	*	*
=34-	=34-	=34-	=34-	=34-	=34-	=34-	=34-
2B-X\	-ter-	.	.	2G/	pa-	2r	.
2A\	-ni	.	.	2F/	-tris	2A/	ae-
2G\	pa-	.	.	2G/	fi-	2B-X/	-ter-
2D/	-tris	.	.	2A/	.	2A/	-ni
=35-	=35-	=35-	=35-	=35-	=35-	=35-	=35-
2GG/	pa-	.	.	2B-\	.	2G/	p(at)-
2D/	-tris	.	.	2A/	.	2F/	-ris
2.GG/	Fi-	.	.	2.G/	.	2.B-/	fi-
4GG/	-li-	.	.	4G/	-li-	4B-/	-li-
=36-	=36-	=36-	=36-	=36-	=36-	=36-	=36-
0D;;	-um.	.	.	0F#X;;	-um.	0A;;	-um.
=||	=||	=||	=||	=||	=||	=||	=||
*-	*-	*-	*-	*-	*-	*-	*-
!!!system-decoration: [(s1,s2,s3,s4)]
!!!AIN: 1 alto 1 bass 1 soprn 1 tenor
!!!ENC: Mateusz Solarz
!!!END: 2022-03-15
!!!EED: Antoni Szymański
!!!EST: 2022-03-19
